modules/hawcons-stroke/icons/icon-40-clouds.svg

<?xml version="1.0" encoding="UTF-8" standalone="no"?>
<svg width="32px" height="32px" viewBox="0 0 32 32" version="1.1" xmlns="http://www.w3.org/2000/svg" xmlns:xlink="http://www.w3.org/1999/xlink" xmlns:sketch="http://www.bohemiancoding.com/sketch/ns">
    <!-- Generator: Sketch 3.0.3 (7891) - http://www.bohemiancoding.com/sketch -->
    <title>icon 40 clouds</title>
    <desc>Created with Sketch.</desc>
    <defs></defs>
    <g id="Page-1" stroke="none" stroke-width="1" fill="none" fill-rule="evenodd" sketch:type="MSPage">
        <g id="icon-40-clouds" sketch:type="MSArtboardGroup" fill="#929292">
            <path d="M26.0022,20 L26.9904421,20 C29.1996477,20 31,18.209139 31,16 C31,14.0993301 29.6657571,12.5028644 27.8788882,12.0987593 C27.9581685,11.7451983 28,11.3774843 28,11 C28,8.23857611 25.7614239,6 23,6 C21.1316704,6 19.5026812,7.02473767 18.6444181,8.54282742 C18.006928,8.19663691 17.2764275,8 16.5,8 C14.4169113,8 12.6644069,9.41539843 12.1517455,11.3369364 C11.4738235,11.1181748 10.7507124,11 10,11 C6.13400656,11 3,14.1340066 3,18 C3,18.1381509 3.00400207,18.275367 3.01189661,18.4115388 C1.23965876,19.1816085 0,20.9491311 0,23 C0,25.7614237 2.23249418,28 4.99943992,28 L22.0005601,28 C24.7616745,28 27,25.7558048 27,23 C27,21.8743941 26.6290657,20.8356605 26.0022,20 L26.0022,20 L26.0022,20 Z M25.0032136,19 L27.0057979,19 C28.656688,19 30,17.6568542 30,16 C30,14.3465171 28.6594501,13 27.0057979,13 L26.4648713,13 C26.8052115,12.4116533 27,11.7285743 27,11 C27,8.79086089 25.2091391,7 23,7 C21.0835743,7 19.4819256,8.34772013 19.091131,10.1470834 C18.4508694,9.44241922 17.527101,9 16.5,9 C14.8364527,9 13.4439753,10.1605877 13.0880917,11.7162395 C14.0877339,12.2084363 14.952874,12.9321468 15.6135384,13.8173973 C16.4525719,13.299097 17.441357,13 18.5,13 C21.5090248,13 23.9536744,15.4163763 23.9993494,18.4145295 C24.3579474,18.5708349 24.6945048,18.7679479 25.0032136,19 L25.0032136,19 L25.0032136,19 Z M1,23 C1,25.209139 2.79793835,27 5.00281647,27 L21.9971835,27 C24.207878,27 26,25.2046438 26,23 C26,21.1225574 24.70144,19.5472159 22.9581226,19.1164746 C22.9857342,18.9149284 23,18.7091302 23,18.5 C23,16.0147185 20.9852815,14 18.5,14 C17.2744589,14 16.1633432,14.489913 15.3518132,15.2845787 C14.3608691,13.3354059 12.336385,12 10,12 C6.68629134,12 4,14.6862913 4,18 C4,18.3764904 4.03467626,18.7448817 4.10100919,19.1021544 C2.32460991,19.5117359 1,21.1046097 1,23 L1,23 Z" id="clouds" sketch:type="MSShapeGroup"></path>
        </g>
    </g>
</svg>

<svg width="32" height="32" xmlns="http://www.w3.org/2000/svg"><path d="M26.002 20h.988C29.2 20 31 18.21 31 16c0-1.9-1.334-3.497-3.121-3.901a5 5 0 0 0-9.234-3.556 4.502 4.502 0 0 0-6.493 2.794 7 7 0 0 0-9.14 7.075A5.006 5.006 0 0 0 0 23c0 2.761 2.232 5 5 5h17a5.003 5.003 0 0 0 4.002-8zm-.999-1h2.003A2.999 2.999 0 0 0 30 16a3 3 0 0 0-2.994-3h-.541a4 4 0 1 0-7.374-2.853 3.501 3.501 0 0 0-6.003 1.57 7.03 7.03 0 0 1 2.526 2.1A5.5 5.5 0 0 1 24 18.414c.358.157.695.354 1.003.586zM1 23c0 2.21 1.798 4 4.003 4h16.994A4.004 4.004 0 0 0 26 23a4.006 4.006 0 0 0-3.042-3.884 4.5 4.5 0 0 0-7.606-3.832 6 6 0 0 0-11.25 3.818A4.006 4.006 0 0 0 .999 23z" fill="#929292" fill-rule="evenodd"/></svg>
